!!!!SEGMENT: pl-stab--15a--001-005_rodowski-aleksander--missa-in-b-benedictus.krn
!!!cenid: 18xx:3445
!!!COM: Rodowski, Aleksander
!!!COM-rismID: pe30009627
!!!CDT: <1790->1810
!!!CNT: Polish
!!!OPR: Missa in B
!!!OTL: Benedictus
!!!OMV: 005
!!!PDT: 1802
!!!AGN:
!!!YEC: Copyright 2022 Narodowy Instytut Fryderyka Chopina (https://polishscores.org)
!!!YEM: License CC-BY-4.0 (https://creativecommons.org/licenses/by/4.0)
!!!SMS-siglum: PL-STAb
!!!SMS-shelfmark: 15a
!!!SMS-shelfwork: 001-005 M
!!!SMS-variant: Canto PL-STAb 15a: 9-11
!!!SMS-altvar: Canto PL-STAb 15a: 12-15
!!!NIFC-rismSourceID: 301050682
!!!NIFC-rismChildID: 301050682
!!!NIFC-islandoraID: pl-stab:2768
!!!URL-pdf-islandora: https://repozytorium.nifc.pl/islandora/object/pl-stab%3A2768/datastream/PDF/view
!!!URL-scan: https://polish.musicsources.pl/pl/lokalizacje/galeria/rekopisy/4421 @EN{Scan on Polish Music Sources Website} @PL{Skany w portalu Dziedzictwo Muzyki Polskiej w otwartym dostępie}
!!!IIIF:
!!!ONB-nifc: UWAGA: części Mszy: 1. Kyrie, 2. Gloria, 3. Patrem, 4. Sanctus, 5. Benedictus, 6. Agnus Dei
!!!AIN: 1 bass 2 clars 2 cor 1 organ 1 soprn 2 violn
!!!key: E-
**kern	**kern	**kern	**dynam	**kern	**text	**text	**kern	**text	**text	**kern	**kern	**kern	**kern
*group5	*group4	*group4	*	*group3	*	*	*group3	*	*	*group2	*group2	*group1	*group1
*part9	*part8	*part7	*	*part6	*	*	*part5	*	*	*part4	*part3	*part2	*part1
*staff9	*staff8	*staff7	*	*staff6	*	*	*staff5	*	*	*staff4	*staff3	*staff2	*staff1
*I"Organo	*I"Violino Secundo	*I"Violino Primo	*	*I"Baſso	*	*	*I"Canto	*	*	*I"Cornu Secundo in B.	*I"Cornu Primo in B.	*I"Clarinetto Secundo	*I"Clarinetto Primo
*I'org	*I'vl 2	*I'vl 1	*	*I'B	*	*	*I'S	*	*	*I'cor 2 in D#	*I'cor 1 in D#	*I'cl 2 in  B♭ 	*I'cl 1 in B♭
*Iorgan	*Ivioln	*Ivioln	*	*Ibass	*	*	*Isoprn	*	*	*Icor	*Icor	*Iclars	*Iclars
*ICklav	*ICstr	*ICstr	*	*ICvox	*	*	*ICvox	*	*	*ICbras	*ICbras	*ICww	*ICww
*clefF4	*clefG2	*clefG2	*	*clefF4	*	*	*clefC1	*	*	*clefG2	*clefG2	*clefG2	*clefG2
*	*	*	*	*	*	*	*	*	*	*ITrd5c9	*ITrd5c9	*ITrd1c2	*ITrd1c2
*k[b-e-a-]	*k[b-e-a-]	*k[b-e-a-]	*	*k[b-e-a-]	*	*	*k[b-e-a-]	*	*	*k[b-e-a-]	*k[b-e-a-]	*k[b-e-a-]	*k[b-e-a-]
*E-:	*E-:	*E-:	*	*E-:	*	*	*E-:	*	*	*E-:	*E-:	*E-:	*E-:
*M2/4	*M2/4	*M2/4	*	*M2/4	*	*	*M2/4	*	*	*M2/4	*M2/4	*M2/4	*M2/4
=1	=1	=1	=1	=1	=1	=1	=1	=1	=1	=1	=1	=1	=1
*2\right	*2\right	*2\right	*2\right	*2\right	*2\right	*	*2\right	*2\right	*	*2\right	*2\right	*2\right	*2\right
!	!	!	!	!LO:TX:t=P:problem:po metrum znak segno na podwójnej kresce taktowej	!	!	!LO:TX:t=P:problem:opis instumentu niebieskim atramentem	!	!	!	!	!	!
!LO:TX:t=P:problem:usunięta podwójna kreska taktowa ze znakiem segno	!	!	!	!LO:TX:t=P:problem:znaki: A- zamiast AA-	!	!	!LO:TX:a:B:t=Adagio	!	!	!LO:TX:a:t=in Dis	!LO:TX:a:t=in Dis	!	!
!LO:TX:t=P:problem:znaki: A- zamiast AA-	!LO:TX:a:B:t=Adagio	!LO:TX:a:B:t=Adagio	!	!LO:TX:a:t=20	!	!	!LO:TX:a:t=P:problem:20 dopisane ołówkiem	!	!	!LO:TX:a:B:t=Adagio	!LO:TX:a:B:t=Adagio	!LO:TX:a:B:t=Adagio	!LO:TX:a:B:t=Adagio
!	!	!	!	!LO:N:vis=00	!	!	!LO:N:vis=00	!	!	!	!	!	!
4e-\	4g/	4b-/	.	0r	.	.	0r	.	.	4G/	4e-\	16g\LL	16b-\LL
.	.	.	.	.	.	.	.	.	.	.	.	16g\J	16ee-\J
.	.	.	.	.	.	.	.	.	.	.	.	8.b-\J	8.gg\J
4B-\	4f/	4a-/	.	.	.	.	.	.	.	4B-/	4f\	.	.
.	.	.	.	.	.	.	.	.	.	.	.	16g\LL	16ee-\LL
.	.	.	.	.	.	.	.	.	.	.	.	16f\	16dd\
.	.	.	.	.	.	.	.	.	.	.	.	16a-\JJ	16ff\JJ
=2	=2	=2	=2	=2	=2	=2	=2	=2	=2	=2	=2	=2	=2
8E-\	16r	16r	.	.	.	.	.	.	.	4e-\	4g\	16.g\LL	16.ee-\LL
.	16e-/LL	16g/LL	.	.	.	.	.	.	.	.	.	.	.
.	.	.	.	.	.	.	.	.	.	.	.	32a-\JK	32cc\JK
8r	16e-/	16g/	.	.	.	.	.	.	.	.	.	8g\J	8b-\J
.	16e-/JJ	16g/JJ	.	.	.	.	.	.	.	.	.	.	.
8E-\	16r	16r	.	.	.	.	.	.	.	4r	4r	16r	16r
.	16e-/LL	16g/LL	.	.	.	.	.	.	.	.	.	16g\LL	16b-\LL
8r	16e-/	16g/	.	.	.	.	.	.	.	.	.	16g\	16ee-\
.	16e-/JJ	16g/JJ	.	.	.	.	.	.	.	.	.	16g\JJ	16b-\JJ
=3	=3	=3	=3	=3	=3	=3	=3	=3	=3	=3	=3	=3	=3
!	!	!	!	!	!	!	!	!	!	!LO:N:vis=0	!LO:N:vis=0	!	!
8E-\	16r	16r	.	.	.	.	.	.	.	1r	1r	16g\LL	16bX\LL
.	16a-/LL	16cc\LL	.	.	.	.	.	.	.	.	.	16a-\J	16cc\J
8r	16a-/	16cc\	.	.	.	.	.	.	.	.	.	8.a-\J	8.cc\J
.	16a-/JJ	16cc\JJ	.	.	.	.	.	.	.	.	.	.	.
8E-\	16r	16r	.	.	.	.	.	.	.	.	.	.	.
.	16f/LL	16a-/LL	.	.	.	.	.	.	.	.	.	16cc\LL	16aa-\LL
8r	16f/	16a-/	.	.	.	.	.	.	.	.	.	16a-\	16ff\
.	16f/JJ	16a-/JJ	.	.	.	.	.	.	.	.	.	16f\JJ	16dd\JJ
=4	=4	=4	=4	=4	=4	=4	=4	=4	=4	=4	=4	=4	=4
8E-\	16r	16r	.	.	.	.	.	.	.	.	.	16.g\LL	16.ee-\LL
.	16e-/LL	16g/LL	.	.	.	.	.	.	.	.	.	.	.
.	.	.	.	.	.	.	.	.	.	.	.	32a-\K	32cc\K
8r	16e-/	16g/	.	.	.	.	.	.	.	.	.	16g\JJ	16b-\JJ
.	16e-/JJ	16g/JJ	.	.	.	.	.	.	.	.	.	16r	16r
8E-\	16r	16r	.	.	.	.	.	.	.	.	.	16r	16r
.	16e-/LL	16g/LL	.	.	.	.	.	.	.	.	.	16g/LL	16b-\LL
8r	16e-/	16g/	.	.	.	.	.	.	.	.	.	16g/	16b-\
.	16e-/JJ	16g/JJ	.	.	.	.	.	.	.	.	.	16g/JJ	16bX\JJ
=5	=5	=5	=5	=5	=5	=5	=5	=5	=5	=5	=5	=5	=5
!	!	!	!	!LO:N:vis=00	!	!	!LO:N:vis=00	!	!	!	!	!	!LO:SIC:v:o=16b-\LL
8E-\	16r	16r	.	0r	.	.	0r	.	.	2r	2r	16g/LL	16bn\LL
.	16a-/LL	16cc\LL	.	.	.	.	.	.	.	.	.	16a-/J	16cc\J
8r	16a-/	16cc\	.	.	.	.	.	.	.	.	.	8.a-/J	8.cc\J
.	16a-/JJ	16cc\JJ	.	.	.	.	.	.	.	.	.	.	.
8E-\	16r	16r	.	.	.	.	.	.	.	.	.	.	.
.	16f/LL	16a-/LL	.	.	.	.	.	.	.	.	.	16cc\LL	16aa-\LL
8r	16f/	16a-/	.	.	.	.	.	.	.	.	.	16a-\	16ff\
.	16f/JJ	16a-/JJ	.	.	.	.	.	.	.	.	.	16f\JJ	16dd\JJ
=6	=6	=6	=6	=6	=6	=6	=6	=6	=6	=6	=6	=6	=6
8E-\L	8e-/L	8g/L	.	.	.	.	.	.	.	8G\L	8e-\L	8g/L	8ee-\L
8E-\	16g/L	16b-/L	.	.	.	.	.	.	.	16e-\L	16g\L	16b-/L	16gg\L
.	16f/JJ	16a-/JJ	.	.	.	.	.	.	.	16B-\JJ	16f\JJ	16a-/JJ	16ff\JJ
8E-\J	8e-/	8g/	.	.	.	.	.	.	.	8G/	8e-\	8g/	8ee-\
8r	8r	8r	.	.	.	.	.	.	.	8r	8r	8r	8r
!	!	!	!	!	!	!	!	!	!	!	!	!LO:LB:g=original	!LO:LB:g=original
=7	=7	=7	=7	=7	=7	=7	=7	=7	=7	=7	=7	=7	=7
!	!LO:N:vis=0	!	!	!	!	!	!	!	!	!LO:N:vis=00	!LO:N:vis=00	!	!
4B-\	1r	16ff\LL	.	.	.	.	.	.	.	0r	0r	4.dd\	4.ff\
.	.	16bb-\	.	.	.	.	.	.	.	.	.	.	.
.	.	16ddd\	.	.	.	.	.	.	.	.	.	.	.
.	.	16bb-\JJ	.	.	.	.	.	.	.	.	.	.	.
4F\	.	4aan\	.	.	.	.	.	.	.	.	.	.	.
*	*	*	*	*	*	*	*	*	*	*	*	*Xtuplet	*Xtuplet
.	.	.	.	.	.	.	.	.	.	.	.	24b-\LL	24dd\LL
.	.	.	.	.	.	.	.	.	.	.	.	24a\	24cc\
.	.	.	.	.	.	.	.	.	.	.	.	24cc\JJ	24ee-\JJ
=8	=8	=8	=8	=8	=8	=8	=8	=8	=8	=8	=8	=8	=8
4B-\	.	16ff\LL	.	.	.	.	.	.	.	.	.	8b-\L	8dd\L
.	.	16bb-\	.	.	.	.	.	.	.	.	.	.	.
!	!	!	!	!	!	!	!	!	!	!	!	!	!LO:N:vis=16.
.	.	16ddd\	.	.	.	.	.	.	.	.	.	8.dd\J	8.ff\J
.	.	16bb-\JJ	.	.	.	.	.	.	.	.	.	.	.
4F\	.	4aan\	.	.	.	.	.	.	.	.	.	.	.
.	.	.	.	.	.	.	.	.	.	.	.	16b-\LL	16dd\LL
.	.	.	.	.	.	.	.	.	.	.	.	16a\	16cc\
.	.	.	.	.	.	.	.	.	.	.	.	16cc\JJ	16ee-\JJ
!LO:LB:g=original	!	!LO:LB:g=original	!	!	!	!	!	!	!	!	!	!	!
=9	=9	=9	=9	=9	=9	=9	=9	=9	=9	=9	=9	=9	=9
!	!	!	!	!LO:N:vis=00	!	!	!LO:N:vis=00	!	!	!	!	!	!
8B-\L	8d/L	32bb-\LLL	.	0r	.	.	0r	.	.	.	.	8b-/L	8dd\L
.	.	32aan\	.	.	.	.	.	.	.	.	.	.	.
.	.	32bb-\	.	.	.	.	.	.	.	.	.	.	.
.	.	32ff\JJJ	.	.	.	.	.	.	.	.	.	.	.
8E-\	8e-/	32gg\LLL	.	.	.	.	.	.	.	.	.	8e-/	8cc\
.	.	32dd\	.	.	.	.	.	.	.	.	.	.	.
.	.	32ee-\	.	.	.	.	.	.	.	.	.	.	.
.	.	32cc\JJJ	.	.	.	.	.	.	.	.	.	.	.
8F\	8f/	8b-/L	.	.	.	.	.	.	.	.	.	8d/	8b-\
!LO:SIC:v:o=8G\J	!	!LO:SIC:v:o=8a-/J	!	!	!	!	!	!	!	!	!	!	!LO:SIC:v:o=8a-\J
8An\J	8e-/J	8an/J	.	.	.	.	.	.	.	.	.	8c/J	8an\J
=10	=10	=10	=10	=10	=10	=10	=10	=10	=10	=10	=10	=10	=10
8B-\L	8d/L	8b-\L	.	.	.	.	.	.	.	.	.	8d/	8b-/
8B-\	16.f/L	16.dd\L	.	.	.	.	.	.	.	.	.	8r	8r
.	32e-/JJk	32cc\JJk	.	.	.	.	.	.	.	.	.	.	.
8B-\J	8d/	8b-/	.	.	.	.	.	.	.	.	.	4r	4r
8r	8r	8r	.	.	.	.	.	.	.	.	.	.	.
=11	=11	=11	=11	=11	=11	=11	=11	=11	=11	=11	=11	=11	=11
8E-\	4g/	4b-/	.	.	.	.	.	.	.	16e-\LL	16g\LL	16ee-\LL	16gg\LL
.	.	.	.	.	.	.	.	.	.	16f\	16a-\	16ff\	16aa-X\
8r	.	.	.	.	.	.	.	.	.	16g\	16b-\	16gg\	16bb-\
.	.	.	.	.	.	.	.	.	.	16a-\JJ	16cc\JJ	16aa-\JJ	16ccc\JJ
8e-\	16ee-\LL	16gg\LL	.	.	.	.	.	.	.	8g\	8b-\	8gg\	8bb-\
.	16b-\	16ee-\	.	.	.	.	.	.	.	.	.	.	.
8r	16g\	16b-\	.	.	.	.	.	.	.	8r	8r	8r	8r
.	16e-\JJ	16g\JJ	.	.	.	.	.	.	.	.	.	.	.
!	!LO:LB:g=original	!	!	!	!	!	!	!	!	!	!	!	!
=12	=12	=12	=12	=12	=12	=12	=12	=12	=12	=12	=12	=12	=12
8B-\	4f/	4a-/	.	.	.	.	.	.	.	16B-\LL	16f\LL	16dd\LL	16ff\LL
.	.	.	.	.	.	.	.	.	.	16e-\	16g\	16ee-\	16gg\
8r	.	.	.	.	.	.	.	.	.	16f\	16a-\	16ff\	16aa-\
.	.	.	.	.	.	.	.	.	.	16g\JJ	16b-\JJ	16gg\JJ	16bb-\JJ
8B-\	16dd\LL	16ff\LL	.	.	.	.	.	.	.	8f\	8a-\	8ff\	8aa-\
.	16b-\	16dd\	.	.	.	.	.	.	.	.	.	.	.
8r	16g\	16b-\	.	.	.	.	.	.	.	8r	8r	8r	8r
.	16f\JJ	16a-\JJ	.	.	.	.	.	.	.	.	.	.	.
=13	=13	=13	=13	=13	=13	=13	=13	=13	=13	=13	=13	=13	=13
!	!	!	!	!LO:N:vis=00	!	!	!LO:N:vis=00	!	!	!	!	!	!
8e-\L	16r	16r	.	0r	.	.	0r	.	.	8e-\L	8g\L	8ee-\L	8gg\L
.	16g\LL	16g/LL	.	.	.	.	.	.	.	.	.	.	.
8e-\	16g\	16cc/	.	.	.	.	.	.	.	8e-\	8g\	8ee-\	8gg\
.	16g\JJ	16cc/JJ	.	.	.	.	.	.	.	.	.	.	.
8c\	16r	16r	.	.	.	.	.	.	.	8f\	8f\	8ee-\	8aa\
.	16f/LL	16ee-\LL	.	.	.	.	.	.	.	.	.	.	.
8An\J	16f/	16ee-\	.	.	.	.	.	.	.	8f\J	8f\J	8ee-\J	8aa\J
.	16f/JJ	16ee-\JJ	.	.	.	.	.	.	.	.	.	.	.
=14	=14	=14	=14	=14	=14	=14	=14	=14	=14	=14	=14	=14	=14
!	!LO:TX:a:t=P:problem:mixed beam	!	!	!	!	!	!	!	!	!	!	!	!
8B-\L	32b-\LLL	32dd/LLL	.	.	.	.	.	.	.	8B-/	8f\	8dd\	8bb-\
.	32B-/	32B-/	.	.	.	.	.	.	.	.	.	.	.
.	32c/	32c/	.	.	.	.	.	.	.	.	.	.	.
.	32d/JJJ	32d/JJJ	.	.	.	.	.	.	.	.	.	.	.
!	!	!	!	!	!	!	!	!	!	!	!	!LO:N:vis=4	!
8B-\	32e-/LLL	32e-/LLL	.	.	.	.	.	.	.	8r	8r	8r	8r
.	32f/	32f/	.	.	.	.	.	.	.	.	.	.	.
.	32g/	32g/	.	.	.	.	.	.	.	.	.	.	.
.	32an/JJJ	32an/JJJ	.	.	.	.	.	.	.	.	.	.	.
!	!	!	!	!	!	!	!	!	!	!	!	!LO:N:vis=8	!
8B-\J	8b- 8d/	8b- 8d/	.	.	.	.	.	.	.	4r	4r	4r	4r
8r	8r	8r	.	.	.	.	.	.	.	.	.	.	.
!	!	!	!	!	!	!	!	!	!	!	!LO:LB:g=original	!	!
=15	=15	=15	=15	=15	=15	=15	=15	=15	=15	=15	=15	=15	=15
4e-\	16r	16r	.	.	.	.	.	.	.	8G/	8e-\	16g\LL	16b-/LL
.	16b-/LL	16g/LL	.	.	.	.	.	.	.	.	.	16g\J	16ee-/JJ
.	16b-/	16g/	.	.	.	.	.	.	.	4e-\	4g\	8.b-\J	8.gg\
.	16b-/JJ	16g/JJ	.	.	.	.	.	.	.	.	.	.	.
4B-\	16r	16r	.	.	.	.	.	.	.	.	.	.	.
.	16a-/LL	16f/LL	.	.	.	.	.	.	.	.	.	16cc\LL	16aa-\LL
.	16a-/	16f/	.	.	.	.	.	.	.	8B-/	8f\	16a-\	16ff\
.	16a-/JJ	16f/JJ	.	.	.	.	.	.	.	.	.	16f\JJ	16dd\JJ
!	!	!LO:LB:g=original	!	!	!	!	!	!	!	!LO:LB:g=original	!	!LO:LB:g=original	!LO:LB:g=original
=16	=16	=16	=16	=16	=16	=16	=16	=16	=16	=16	=16	=16	=16
4E-\	16r	16r	.	.	.	.	.	.	.	8e-\	8g\	16g\LL	16ee-\LL
.	16g/LL	16e-/LL	.	.	.	.	.	.	.	.	.	16ee-\J	16gg\J
.	16g/	16e-/	.	.	.	.	.	.	.	4g\	4b-\	8.gg\J	8.bb-\J
.	16g/JJ	16e-/JJ	.	.	.	.	.	.	.	.	.	.	.
4B-\	16r	16r	.	.	.	.	.	.	.	.	.	.	.
.	16f/LL	16d/LL	.	.	.	.	.	.	.	.	.	16aa-\LL	16ccc\LL
.	16f/	16d/	.	.	.	.	.	.	.	8f\	8a-\	16ff\	16aa-\
.	16f/JJ	16d/JJ	.	.	.	.	.	.	.	.	.	16dd\JJ	16ff\JJ
=17	=17	=17	=17	=17	=17	=17	=17	=17	=17	=17	=17	=17	=17
!	!	!	!	!LO:N:vis=00	!	!	!LO:N:vis=00	!	!	!	!	!	!
8G\L	8g/L	8e-/L	.	0r	.	.	0r	.	.	8e-\L	8g\L	16ee-\LL	16gg\LL
.	.	.	.	.	.	.	.	.	.	.	.	16g\	16b-\
8A-\	8a-/	8f/	.	.	.	.	.	.	.	8f\	8a-\	16a-\	16cc\
.	.	.	.	.	.	.	.	.	.	.	.	16a-\JJ	16ff\JJ
8B-\	8b-/	8g/	.	.	.	.	.	.	.	8e-\	8g\	8g\L	8ee-\L
8B-\J	8a-/J	8f/J	.	.	.	.	.	.	.	8B-\J	8f\J	8f\J	8dd\J
=18	=18	=18	=18	=18	=18	=18	=18	=18	=18	=18	=18	=18	=18
4e-\	16r	16r	.	.	.	.	.	.	.	8e-\	8g\	16g\LL	16ee-\LL
.	16g/LL	16e-/LL	.	.	.	.	.	.	.	.	.	16ee-\J	16gg\J
.	16g/	16e-/	.	.	.	.	.	.	.	4g\	4b-\	8.gg\J	8.bb-\J
.	16g/JJ	16e-/JJ	.	.	.	.	.	.	.	.	.	.	.
4B-\	16r	16r	.	.	.	.	.	.	.	.	.	.	.
.	16f/LL	16d/LL	.	.	.	.	.	.	.	.	.	16aa-\LL	16ccc\LL
.	16f/	16d/	.	.	.	.	.	.	.	8f\	8a-\	16ff\	16aa-\
.	16f/JJ	16d/JJ	.	.	.	.	.	.	.	.	.	16dd\JJ	16ff\JJ
!LO:LB:g=original	!	!	!	!	!	!	!	!	!	!	!	!	!
=19	=19	=19	=19	=19	=19	=19	=19	=19	=19	=19	=19	=19	=19
!	!	!	!	!	!	!	!	!	!	!	!	!LO:TX:a:t=P:problem:mixed beam	!
8G\L	8g/L	8e-/L	.	.	.	.	.	.	.	8e-\L	8g\L	16ee-\LL	16gg\LL
.	.	.	.	.	.	.	.	.	.	.	.	16g/	16b-\
8A-\	8a-/	8f/	.	.	.	.	.	.	.	8f\	8a-\	16a-/	16cc\
.	.	.	.	.	.	.	.	.	.	.	.	16a-/JJ	16ff\JJ
8B-\	8b-/	8g/	.	.	.	.	.	.	.	8e-\	8g\	8g/L	8ee-\L
8B-\J	8a-/J	8f/J	.	.	.	.	.	.	.	8B-\J	8f\J	8f/J	8dd\J
!	!LO:LB:g=original	!	!	!	!	!	!	!	!	!	!	!	!
=20	=20	=20	=20	=20	=20	=20	=20	=20	=20	=20	=20	=20	=20
!	!	!	!	!	!	!	!	!	!	!	!	!LO:TX:a:t=P:problem:mixed beam	!
8e-\L	8g/L	8e-/L	.	.	.	.	.	.	.	8G/L	8e-\L	8g/L	8ee-\L
8B-\	16g/L	16B-/L	.	.	.	.	.	.	.	16e-/L	16g\L	16gg\L	16bb-\L
.	16f/JJ	16A-/JJ	.	.	.	.	.	.	.	16B-/JJ	16f\JJ	16ff\JJ	16aa-\JJ
8E-\J	4e-;/	4G;/	.	.	.	.	.	.	.	8G/	8e-\	8ee-\	8gg\
!LO:TX:t=P:problem:usunięta podwójna kreska taktowa ze znakiem segno	!	!	!	!	!	!	!	!	!	!	!	!	!LO:TX:t=P:problem:podwójna fermata
8r	.	.	.	.	.	.	.	.	.	8r;	8r;	8r	8r;
!	!	!	!	!LO:TX:b:rj:t=finis	!	!	!	!	!	!	!	!	!
=21	=21	=21	=21	=21||	=21||	=21||	=21	=21	=21	=21	=21	=21;;	=21
!	!	!	!LO:DY:a:t=p.	!	!	!	!	!	!	!LO:N:vis=00	!LO:N:vis=00	!LO:N:vis=00	!LO:N:vis=00
4e-\	4g/	4b-\	p	4e-\	Be-	.	16b-\LL	Be-	.	0r	0r	0r	0r
.	.	.	.	.	.	.	16ee-\J	.	.	.	.	.	.
.	.	.	.	.	.	.	8.gg\J	.	.	.	.	.	.
4B-\	4f/	4a-\	.	4B-\	-ne-	.	.	.	.	.	.	.	.
.	.	.	.	.	.	.	16ee-\LL	-ne-	.	.	.	.	.
.	.	.	.	.	.	.	16dd\	.	.	.	.	.	.
.	.	.	.	.	.	.	16ff\JJ	.	.	.	.	.	.
=22	=22	=22	=22	=22	=22	=22	=22	=22	=22	=22	=22	=22	=22
8E-\	16r	16r	.	16.G\LL	-di-	.	16.ee-\LL	-di-	.	.	.	.	.
.	16e-/LL	16g/LL	.	.	.	.	.	.	.	.	.	.	.
.	.	.	.	32A-\JK	.	.	32cc\JK	.	.	.	.	.	.
!	!	!	!	!	!	!	!LO:N:vis=16	!	!	!	!	!	!
8r	16e-/	16g/	.	8G\J	-ctus	.	8b-\J	-ctus	.	.	.	.	.
.	16e-/JJ	16g/JJ	.	.	.	.	.	.	.	.	.	.	.
8E-\	16r	16r	.	8r	.	.	8r	.	.	.	.	.	.
.	16e-/LL	16g/LL	.	.	.	.	.	.	.	.	.	.	.
8r	16e-/	16g/	.	8G\	qui	.	8b-\	qui	.	.	.	.	.
.	16e-/JJ	16g/JJ	.	.	.	.	.	.	.	.	.	.	.
=23	=23	=23	=23	=23	=23	=23	=23	=23	=23	=23	=23	=23	=23
8E-\	16r	16r	.	16G\LL	ve-	.	16bn\LL	ve-	.	.	.	.	.
.	16cc\LL	16a-/LL	.	16A-\JJ	.	.	16cc\J	.	.	.	.	.	.
8r	16cc\	16a-/	.	4A-\	-nit	.	8.cc\J	-nit	.	.	.	.	.
.	16cc\JJ	16a-/JJ	.	.	.	.	.	.	.	.	.	.	.
8E-\	16r	16r	.	.	.	.	.	.	.	.	.	.	.
.	16a-/LL	16f/LL	.	.	.	.	16aa-\LL	qui	.	.	.	.	.
8r	16a-/	16f/	.	16A-\LL	qui	.	16ff\	.	.	.	.	.	.
.	16a-/JJ	16f/JJ	.	16F\JJ	.	.	16dd\JJ	.	.	.	.	.	.
=24	=24	=24	=24	=24	=24	=24	=24	=24	=24	=24	=24	=24	=24
8E-\	16r	16r	.	16.G\LL	ve-	.	16.ee-\LL	ve-	.	.	.	.	.
.	16e-/LL	16g/LL	.	.	.	.	.	.	.	.	.	.	.
.	.	.	.	32A-\JK	.	.	32cc\JK	.	.	.	.	.	.
!	!	!	!	!	!	!	!LO:N:vis=16	!	!	!	!	!	!
8r	16e-/	16g/	.	8G\J	-nit	.	8b-\J	-nit	.	.	.	.	.
.	16e-/JJ	16g/JJ	.	.	.	.	.	.	.	.	.	.	.
8E-\	16r	16r	.	8r	.	.	8r	.	.	.	.	.	.
.	16e-/LL	16g/LL	.	.	.	.	.	.	.	.	.	.	.
8r	16e-/	16g/	.	8G\	qui	.	8b-\	qui	.	.	.	.	.
.	16e-/JJ	16g/JJ	.	.	.	.	.	.	.	.	.	.	.
!	!	!LO:LB:g=original	!	!	!	!	!	!	!	!	!	!	!
=25	=25	=25	=25	=25	=25	=25	=25	=25	=25	=25	=25	=25	=25
!	!	!	!	!	!	!	!	!	!	!LO:N:vis=00	!LO:N:vis=00	!LO:N:vis=00	!LO:N:vis=00
8E-\	16r	16r	.	16G\LL	ve-	.	16bn\LL	ve-	.	0r	0r	0r	0r
.	16a-/LL	16cc\LL	.	16A-\JJ	.	.	16cc\J	.	.	.	.	.	.
8r	16a-/	16cc\	.	4A-\	-nit	.	8.cc\J	-nit	.	.	.	.	.
.	16a-/JJ	16cc\JJ	.	.	.	.	.	.	.	.	.	.	.
8E-\	16r	16r	.	.	.	.	.	.	.	.	.	.	.
!	!	!	!	!	!	!	!LO:LB:g=original	!	!	!	!	!	!
.	16f/LL	16a-/LL	.	.	.	.	16aa-\LL	qui	.	.	.	.	.
8r	16f/	16a-/	.	16A-\LL	qui	.	16ff\	.	.	.	.	.	.
.	16f/JJ	16a-/JJ	.	16F\JJ	.	.	16dd\JJ	.	.	.	.	.	.
=26	=26	=26	=26	=26	=26	=26	=26	=26	=26	=26	=26	=26	=26
8E-\L	8e-/L	8g\L	.	8A-\L	ve-	.	8ff\L	ve-	.	.	.	.	.
8E-\	16g/L	16b-\L	.	8G\J	-nit	.	8ee-\J	-nit	.	.	.	.	.
.	16f/JJ	16a-\JJ	.	.	.	.	.	.	.	.	.	.	.
8E-\J	8e-/	8g/	.	4r	.	.	16r	.	.	.	.	.	.
.	.	.	.	.	.	.	16gg\	qui	.	.	.	.	.
8r	8r	8r	.	.	.	.	16gg\	ve-	.	.	.	.	.
.	.	.	.	.	.	.	16gg\	-nit	.	.	.	.	.
!	!	!	!	!	!	!	!LO:TX:t=[segno]:problem:znak segno na kresce taktowej	!	!	!	!	!	!
=27	=27	=27	=27	=27	=27	=27	=27||	=27	=27	=27	=27	=27	=27
8d\L	4b-\	4dd\	.	2r	.	.	16ff\LL	in	.	.	.	.	.
.	.	.	.	.	.	.	32gg\L	.	.	.	.	.	.
.	.	.	.	.	.	.	32aa-\JJJ	.	.	.	.	.	.
8B-\	.	.	.	.	.	.	16bb-\	no-	.	.	.	.	.
.	.	.	.	.	.	.	32aa-\	-mi-	.	.	.	.	.
.	.	.	.	.	.	.	32gg\	-ne	.	.	.	.	.
8c\	8cc\L	8ee-\L	.	.	.	.	8ff\L	Do-	.	.	.	.	.
8An\J	8an\J	8cc\J	.	.	.	.	32ff\LL	-mi-	.	.	.	.	.
.	.	.	.	.	.	.	32ee-\	.	.	.	.	.	.
.	.	.	.	.	.	.	32dd\	.	.	.	.	.	.
.	.	.	.	.	.	.	32ee-\JJJ	.	.	.	.	.	.
!	!	!	!	!LO:LB:g=original	!	!	!	!	!	!	!	!	!
=28	=28	=28	=28	=28	=28	=28	=28	=28	=28	=28	=28	=28	=28
!	!LO:TX:a:t=P:problem:mixed beam	!	!	!	!	!	!	!	!	!	!	!	!
4B-\	16b-\LL	16dd\LL	.	4r	.	.	8dd\	-ni	.	.	.	.	.
.	16d/	16b-\	.	.	.	.	.	.	.	.	.	.	.
.	16c/	16an\	.	.	.	.	8r	.	.	.	.	.	.
.	16e-/JJ	16cc\JJ	.	.	.	.	.	.	.	.	.	.	.
4A-X\	16d/LL	16b-\LL	.	16r	.	.	4r	.	.	.	.	.	.
.	16a-X/	16cc\	.	16c\LL	Qui	.	.	.	.	.	.	.	.
.	16a-/	16cc\	.	16c\	ve-	.	.	.	.	.	.	.	.
.	16a-/JJ	16cc\JJ	.	16c\JJ	-nit	.	.	.	.	.	.	.	.
!LO:PB:g=original	!LO:LB:g=orginal	!	!	!	!	!	!	!	!	!	!	!	!
=29	=29	=29	=29	=29	=29	=29	=29	=29	=29	=29	=29	=29	=29
!	!	!	!	!	!	!	!	!	!	!LO:N:vis=00	!LO:N:vis=00	!LO:N:vis=00	!LO:N:vis=00
8G\L	4g/	4b-/	.	16B-\LL	in	.	2r	.	.	0r	0r	0r	0r
.	.	.	.	32c\L	no-	.	.	.	.	.	.	.	.
.	.	.	.	32d\JJJ	.	.	.	.	.	.	.	.	.
8E-\	.	.	.	16e-\LL	-mi-	.	.	.	.	.	.	.	.
.	.	.	.	32d\L	-ne	.	.	.	.	.	.	.	.
.	.	.	.	32c\JJJ	.	.	.	.	.	.	.	.	.
8F\	8f/L	8a-X/L	.	8B-\L	Do-	.	.	.	.	.	.	.	.
8B-\J	8d/J	8f/J	.	32B-\LL	-mi-	.	.	.	.	.	.	.	.
.	.	.	.	32A-\	.	.	.	.	.	.	.	.	.
.	.	.	.	32G\	.	.	.	.	.	.	.	.	.
.	.	.	.	32A-\JJJ	.	.	.	.	.	.	.	.	.
=30	=30	=30	=30	=30	=30	=30	=30	=30	=30	=30	=30	=30	=30
4E-\	8e-/	8g/	.	4G\	-ni	.	16r	.	.	.	.	.	.
!	!	!	!	!	!	!	!LO:TX:t=P:problem:t. 30-31 – łuki dopisane później	!	!	!	!	!	!
.	.	.	.	.	.	.	16ee-\	in	.	.	.	.	.
.	8r	8r	.	.	.	.	(16dd\	no-	.	.	.	.	.
.	.	.	.	.	.	.	16ee-\)	.	[[-mi-	.	.	.	.
4r	4r	4r	.	16r	.	.	(16ee-\	.	-ne	.	.	.	.
.	.	.	.	16e-\LL	no-	in	16gg\)	.	in	.	.	.	.
.	.	.	.	16d\	-mi-	no-	16ff\	-mi-	no-	.	.	.	.
.	.	.	.	16e-\JJ	-ne	-mi	16gg\	-ne	-mi-]]	.	.	.	.
!	!	!	!	!	!	!	!LO:LB:g=original	!	!	!	!	!	!
=31	=31	=31	=31	=31	=31	=31	=31	=31	=31	=31	=31	=31	=31
!	!	!	!	!LO:TX:t=P:problem:tekst: -ne poprawione na no-	!	!	!LO:TX:t=P:problem:tekst: -ne poprawione na no-	!	!	!	!	!	!
2r	2r	2r	.	16e-\LL	no-	.	(16gg\	no-	.	.	.	.	.
.	.	.	.	16c\	.	.	16ee-\	.	[[in	.	.	.	.
!	!	!	!	!LO:TX:t=P:problem:tekst:na znaku powtórki dopisany poprawiony tekst	!	!	!	!	!	!	!	!	!
.	.	.	.	16B-\	.	.	16dd\	.	no-	.	.	.	.
.	.	.	.	16c\JJ	.	.	16ee-\)	.	-mi-	.	.	.	.
!	!	!	!	!LO:TX:t=P:problem:16B- i 16A- poprawione na 8B- i 8A-, wykreślone 16A- i 16A-	!	!	!LO:TX:t=P:problem: 16dd i 16cc poprawione na 8dd i 8cc, wykreślone 16cc i 16cc	!	!	!	!	!	!
.	.	.	.	8B-\L	no-	.	8dd\L	-no-	-ne	.	.	.	.
.	.	.	.	8A-Xi\J	-mi-	.	8cc\J	-mi-	in nomi-]]	.	.	.	.
=32	=32	=32	=32	=32	=32	=32	=32	=32	=32	=32	=32	=32	=32
8F\L	8r	8r	.	8A-\	-ne	.	8cc\	-ne	.	.	.	.	.
8D\	16f/LL	16a-/LL	.	8r	.	.	8r	.	.	.	.	.	.
.	16g/JJ	16b-/JJ	.	.	.	.	.	.	.	.	.	.	.
8B-\	8a-/L	8cc\L	.	8r	.	.	8r	.	.	.	.	.	.
8d\J	16g/L	16b-\L	.	8A-\	Do-	.	8cc\	in	.	.	.	.	.
.	16f/JJ	16a-\JJ	.	.	.	.	.	.	.	.	.	.	.
=33	=33	=33	=33	=33	=33	=33	=33	=33	=33	=33	=33	=33	=33
!	!	!	!	!	!	!	!	!	!	!LO:N:vis=00	!LO:N:vis=00	!LO:N:vis=00	!LO:N:vis=00
8e-\L	8e-/L	8g/L	.	8G\	.	.	8b-\	no-	.	0r	0r	0r	0r
8A-\	8c/	8f/	.	16A-\LL	.	.	16cc\LL	-mi-	.	.	.	.	.
.	.	.	.	32G\L	.	.	32b-\L	-ne	.	.	.	.	.
.	.	.	.	32F\JJJ	.	.	32a-\JJJ	.	.	.	.	.	.
8B-\	8B-/	8e-/	.	8E-\L	-mi-	.	8g/	do-	.	.	.	.	.
8B-\J	8A-/J	8d/J	.	8D\J	.	.	8f/	-mi-	.	.	.	.	.
=34	=34	=34	=34	=34	=34	=34	=34	=34	=34	=34	=34	=34	=34
4E-\	8G/	8e- 8G/	.	4E-\	-ni	.	16e-/	-ni	.	.	.	.	.
.	.	.	.	.	.	.	16ee-\	in	.	.	.	.	.
!	!	!	!	!	!	!	!LO:TX:t=P:problem:t. 34-35 – łuk dopisany później	!	!	!	!	!	!
.	8r	8r	.	.	.	.	(16dd\	no-	.	.	.	.	.
.	.	.	.	.	.	.	16ee-\	.	[[-mi-	.	.	.	.
4r	4r	4r	.	16r	.	.	16ee-\	.	-ne	.	.	.	.
.	.	.	.	16e-\LL	in	.	16gg\)	.	in	.	.	.	.
.	.	.	.	16e-\	no-	.	16ff\	-mi-	no-	.	.	.	.
.	.	.	.	16e-\JJ	-mi-	.	16gg\	-ne	-mi-]]	.	.	.	.
!	!	!	!	!LO:LB:g=original	!	!	!	!	!	!	!	!	!
=35	=35	=35	=35	=35	=35	=35	=35	=35	=35	=35	=35	=35	=35
!	!	!	!	!	!	!	!LO:TX:t=P:problem:tekst: -ne poprawione na no-	!	!	!	!	!	!
2r	2r	2r	.	16e-\LL	-ne	.	(16gg\	no-	.	.	.	.	.
.	.	.	.	16c\	.	.	16ee-\)	.	[[in	.	.	.	.
!	!	!	!	!	!	!	!LO:LB:g=original	!	!	!	!	!	!
.	.	.	.	16c\	in	.	16dd\	.	no-	.	.	.	.
.	.	.	.	16c\JJ	no-	.	16ee-\	.	-mi-	.	.	.	.
!	!	!	!	!	!	!	!LO:TX:t=P:problem:16dd i 16cc poprawione na 8dd i 8cc, wykreślone 16cc i 16cc	!	!	!	!	!	!
.	.	.	.	16c\LL	-mi-	.	8dd\L	-no-	-ne	.	.	.	.
.	.	.	.	16A-\	.	.	.	.	.	.	.	.	.
.	.	.	.	16A-\	.	.	8cc\J	-mi-	in nomi-]]	.	.	.	.
.	.	.	.	16A-\JJ	.	.	.	.	.	.	.	.	.
!	!	!LO:LB:g=original	!	!	!	!	!	!	!	!	!	!	!
=36	=36	=36	=36	=36	=36	=36	=36	=36	=36	=36	=36	=36	=36
8F\L	8r	8r	.	8A-\	-ne	.	8cc\	-ne	.	.	.	.	.
8D\	16f/LL	16a-/LL	.	8r	.	.	8r	.	.	.	.	.	.
.	16g/JJ	16b-/JJ	.	.	.	.	.	.	.	.	.	.	.
8B-\	8a-/L	8cc\L	.	8r	.	.	8r	.	.	.	.	.	.
8d\J	16g/L	16b-\L	.	8A-\	Do-	.	8cc\	in	.	.	.	.	.
.	16f/JJ	16a-\JJ	.	.	.	.	.	.	.	.	.	.	.
=37	=37	=37	=37	=37	=37	=37	=37	=37	=37	=37	=37	=37	=37
8e-\L	8e-/L	8g/L	.	8G\	.	.	8b-\	no-	.	2r	2r	2r	2r
8A-\	8c/	8f/	.	16A-\LL	.	.	16cc\LL	-mi-	.	.	.	.	.
.	.	.	.	32G\L	.	.	32b-\L	-ne	.	.	.	.	.
.	.	.	.	32F\JJJ	.	.	32a-\JJJ	.	.	.	.	.	.
8B-\	8B-/	8e-/	.	8E-\L	-mi-	.	8g/	do-	.	.	.	.	.
8B-\J	8A-/J	8d/J	.	8D\J	.	.	8f/	-mi-	.	.	.	.	.
=38	=38	=38	=38	=38	=38	=38	=38	=38	=38	=38	=38	=38	=38
8E-\L	8G/L	8e-L 8G/	.	8E-\	-ni	.	8e-/	-ni	.	4r	4r	4r	4r
8G\	16e-/L	16g/L	.	8r	.	.	8r;	.	.	.	.	.	.
.	16g/JJ	16b-/JJ	.	.	.	.	.	.	.	.	.	.	.
!	!	!	!	!	!	!	!LO:TX:b:t=finis	!	!	!	!	!	!
8E-\J	8e-/	8ee- 8g/	.	4r	.	.	4r	.	.	8r	8r	8r	8r
8r	16e-/LL	16g/LL	.	.	.	.	.	.	.	16e-\LL	16g\LL	16ee-\LL	16gg\LL
.	16e-/JJ	16g/JJ	.	.	.	.	.	.	.	16e-\JJ	16g\JJ	16ee-\JJ	16gg\JJ
!	!	!	!	!	!	!	!	!	!	!LO:LB:g=original	!	!	!
=39	=39	=39	=39	=39	=39	=39	=39	=39	=39	=39	=39	=39	=39
!	!	!	!	!LO:N:vis=00	!	!	!LO:N:vis=00	!	!	!	!	!	!
8r	8.f/L	8.a-/L	.	0r	.	.	0r	.	.	8.f\L	8.a-\L	8.ff\L	8.aa-\L
8B-\L	.	.	.	.	.	.	.	.	.	.	.	.	.
.	16e-/Jk	16g/Jk	.	.	.	.	.	.	.	16e-\K	16g\K	16ee-\K	16gg\K
8B-\J	8d/L	8f/L	.	.	.	.	.	.	.	8B-\J	8f\J	8dd\J	8ff\J
8r	16d/L	16f/L	.	.	.	.	.	.	.	16B-\LL	16f\LL	16dd\LL	16ff\LL
.	16d/JJ	16f/JJ	.	.	.	.	.	.	.	16B-\JJ	16f\JJ	16dd\JJ	16ff\JJ
!	!	!	!	!	!	!	!	!	!	!	!	!LO:LB:g=original	!LO:LB:g=original
=40	=40	=40	=40	=40	=40	=40	=40	=40	=40	=40	=40	=40	=40
8r	8.B-/L	8.g/L	.	.	.	.	.	.	.	8.e-\L	8.g\L	8.b-\L	8.gg\L
8E-\L	.	.	.	.	.	.	.	.	.	.	.	.	.
.	16A-/Jk	16f/Jk	.	.	.	.	.	.	.	16B-\K	16f\K	16a-\K	16ff\Jk
8E-\J	8G/L	8e-/L	.	.	.	.	.	.	.	8G\J	8e-\J	8g\J	8ee-\L
!	!	!	!	!	!	!	!	!	!	!LO:N:vis=4	!	!	!
8r	16g/L	16b-/L	.	.	.	.	.	.	.	8r	8r	16g\LL	16b-\L
.	16g/JJ	16b-/JJ	.	.	.	.	.	.	.	.	.	16g\JJ	16b-\JJ
!LO:LB:g=original	!LO:LB:g=original	!	!	!	!	!	!	!	!	!	!LO:LB:g=original	!	!
=41	=41	=41	=41	=41	=41	=41	=41	=41	=41	=41	=41	=41	=41
4A-\	4f/	4a-/	.	.	.	.	.	.	.	4f\	4a-\	8a-\L	8cc\L
.	.	.	.	.	.	.	.	.	.	.	.	16g\L	16b-\L
.	.	.	.	.	.	.	.	.	.	.	.	16a-\JJ	16cc\JJ
4B-\	4d/	4f/	.	.	.	.	.	.	.	4A-/	4f\	8f/L	8dd\L
.	.	.	.	.	.	.	.	.	.	.	.	16e-/L	16cc\L
.	.	.	.	.	.	.	.	.	.	.	.	16f/JJ	16dd\JJ
=42	=42	=42	=42	=42	=42	=42	=42	=42	=42	=42	=42	=42	=42
!	!	!	!	!	!	!	!	!	!	!LO:TX:a:t=P:problem:mixed beam	!	!	!
4E-\	8e-/L	8g/L	.	.	.	.	.	.	.	8e-\L	8g\L	8g/L	8ee-\L
.	16g/L	16b-/L	.	.	.	.	.	.	.	8G/J	8e-\J	8g/J	8b-\J
.	16f/JJ	16a-/JJ	.	.	.	.	.	.	.	.	.	.	.
4r	8e-/	8g/	.	.	.	.	.	.	.	8r	8r	8r	8r
!	!	!	!	!	!	!	!	!	!	!	!LO:N:vis=8	!	!
.	8r	8r	.	.	.	.	.	.	.	16e-\LL	16g\LL	16ee-\LL	16gg\LL
!	!	!	!	!	!	!	!	!	!	!	!LO:N:vis=8	!	!
.	.	.	.	.	.	.	.	.	.	16e-\JJ	16g\JJ	16ee-\JJ	16gg\JJ
=43	=43	=43	=43	=43	=43	=43	=43	=43	=43	=43	=43	=43	=43
!	!	!	!	!LO:N:vis=00	!	!	!LO:N:vis=00	!	!	!	!	!	!
8r	4f/	4a-/	.	0r	.	.	0r	.	.	8.f\L	8.a-\L	8.ff\L	8.aa-\L
8B-\L	.	.	.	.	.	.	.	.	.	.	.	.	.
.	.	.	.	.	.	.	.	.	.	16e-\K	16g\K	16ee-\K	16gg\Jk
8B-\J	4d/	4f/	.	.	.	.	.	.	.	8B-\J	8f\J	8dd\J	8ff\L
8r	.	.	.	.	.	.	.	.	.	16B-\LL	16f\LL	16dd\LL	16ff\L
.	.	.	.	.	.	.	.	.	.	16B-\JJ	16f\JJ	16dd\JJ	16ff\JJ
=44	=44	=44	=44	=44	=44	=44	=44	=44	=44	=44	=44	=44	=44
8r	4e-/	4g/	.	.	.	.	.	.	.	8.e-\L	8.g\L	8.b-\L	8.gg\L
8E-\L	.	.	.	.	.	.	.	.	.	.	.	.	.
.	.	.	.	.	.	.	.	.	.	16B-\K	16f\K	16a-\K	16ff\Jk
8E-\J	4G/	4e-/	.	.	.	.	.	.	.	8G\J	8e-\J	8g\J	8ee-\L
8r	.	.	.	.	.	.	.	.	.	8r	8r	16g/LL	16b-\L
.	.	.	.	.	.	.	.	.	.	.	.	16g/JJ	16b-\JJ
=45	=45	=45	=45	=45	=45	=45	=45	=45	=45	=45	=45	=45	=45
8A-\L	4A-/	4f/	.	.	.	.	.	.	.	8r	8r	8a-/L	8cc\L
8A-\	.	.	.	.	.	.	.	.	.	8f\L	8a-\L	8a-/	8ff\
8B-\	8g/L	8b-/L	.	.	.	.	.	.	.	8e-\	8g\	8g/	8ee-\
8B-\J	8f/J	8a-/J	.	.	.	.	.	.	.	8B-\J	8f\J	8f/J	8dd\J
=46	=46	=46	=46	=46	=46	=46	=46	=46	=46	=46	=46	=46	=46
!LO:SIC:v:o=8D\L	!	!	!	!	!	!	!	!	!	!	!	!	!
8E-\L	8e-/L	8g/L	.	.	.	.	.	.	.	8G/L	8e-\L	8g/L	8ee-\L
!LO:SIC:v:o=16F\L	!	!	!	!	!	!	!	!	!	!	!	!	!
16G\L	16g/L	16b-/L	.	.	.	.	.	.	.	8G/	8e-\	16g/L	16b-\L
!LO:SIC:v:o=16A-\JJ	!	!	!	!	!	!	!	!	!	!	!	!	!
16G=B-\JJ	16f/JJ	16a-/JJ	.	.	.	.	.	.	.	.	.	16f/JJ	16a-\JJ
8e-\	8e-/	8g/	.	.	.	.	.	.	.	8G/J	8e-\J	8e-/	8g/
8r	8r	8r	.	.	.	.	.	.	.	8r	8r	8r	8r
=47	=47	=47	=47	=47	=47	=47	=47	=47	=47	=47	=47||	=47	=47
!	!	!	!	!	!	!	!LO:N:vis=00	!	!	!LO:N:vis=00	!LO:N:vis=00	!LO:N:vis=00	!LO:N:vis=00
8r	8r	8r	.	4B-\	Be-	.	0r	.	.	0r	0r	0r	0r
8E-\L	8e-/L	8g/L	.	.	.	.	.	.	.	.	.	.	.
8E-\	8e-/	8g/	.	16A-\LL	-ne-	.	.	.	.	.	.	.	.
.	.	.	.	16G\	.	.	.	.	.	.	.	.	.
8E-\J	8e-/J	8g/J	.	16F\	.	.	.	.	.	.	.	.	.
.	.	.	.	16E-\JJ	.	.	.	.	.	.	.	.	.
!	!	!LO:LB:g=original	!	!	!	!	!	!	!	!	!	!	!
=48	=48	=48	=48	=48	=48	=48	=48	=48	=48	=48	=48	=48	=48
8r	8r	8r	.	16.B-\LL	-di-	.	.	.	.	.	.	.	.
.	.	.	.	32A-\JK	.	.	.	.	.	.	.	.	.
8F\L	8f/L	8a-/L	.	8F\J	-ctus	.	.	.	.	.	.	.	.
!	!	!	!	!LO:N:vis=16	!	!	!	!	!	!	!	!	!
8F\	8f/	8a-/	.	8r	.	.	.	.	.	.	.	.	.
8F\J	8f/J	8a-/J	.	16A-\LL	qui	.	.	.	.	.	.	.	.
.	.	.	.	16c\JJ	.	.	.	.	.	.	.	.	.
=49	=49	=49	=49	=49	=49	=49	=49	=49	=49	=49	=49	=49	=49
4G\	8r	8r	.	16c\LL	ve-	.	.	.	.	.	.	.	.
.	.	.	.	16B-\	.	.	.	.	.	.	.	.	.
.	8e-/	8g/	.	16A-\	.	.	.	.	.	.	.	.	.
.	.	.	.	16G\JJ	.	.	.	.	.	.	.	.	.
8A-\L	8r	8r	.	16G\LL	.	.	.	.	.	.	.	.	.
.	.	.	.	16F\	.	.	.	.	.	.	.	.	.
8B-\J	8f/	8a-/	.	16E-\	.	.	.	.	.	.	.	.	.
.	.	.	.	16D\JJ	.	.	.	.	.	.	.	.	.
!	!	!	!	!LO:LB:g=original	!	!	!	!	!	!	!	!	!
=50	=50	=50	=50	=50	=50	=50	=50	=50	=50	=50	=50	=50	=50
8E-\L	8r	8r	.	16F\LL	.	.	.	.	.	.	.	.	.
.	.	.	.	16E-\J	.	.	.	.	.	.	.	.	.
8e-\	8e-/L	8g/L	.	8E-\J	-nit	.	.	.	.	.	.	.	.
8E-\J	8e-/J	8g/J	.	8r	.	.	.	.	.	.	.	.	.
8r	8r	8r	.	16e-\LL	qui	.	.	.	.	.	.	.	.
.	.	.	.	16c\JJ	.	.	.	.	.	.	.	.	.
=51	=51	=51	=51	=51	=51	=51	=51	=51	=51	=51	=51	=51	=51
!	!	!	!	!	!	!	!	!	!	!LO:N:vis=00	!LO:N:vis=00	!LO:N:vis=00	!LO:N:vis=00
4G\	8r	8r	.	16c\LL	ve-	.	2r	.	.	0r	0r	0r	0r
.	.	.	.	16B-\	.	.	.	.	.	.	.	.	.
.	8e-/	8g/	.	16A-\	.	.	.	.	.	.	.	.	.
.	.	.	.	16G\JJ	.	.	.	.	.	.	.	.	.
8A-\L	8r	8r	.	16B-\LL	.	.	.	.	.	.	.	.	.
.	.	.	.	16A-\	.	.	.	.	.	.	.	.	.
8B-\J	8f/	8a-/	.	16G\	.	.	.	.	.	.	.	.	.
.	.	.	.	16F\JJ	.	.	.	.	.	.	.	.	.
!LO:LB:g=original	!	!	!	!	!	!	!	!	!	!	!	!	!
=52	=52	=52	=52	=52	=52	=52	=52	=52	=52	=52	=52	=52	=52
8E-\L	8r	8r	.	16F\LL	.	.	4r	.	.	.	.	.	.
.	.	.	.	16E-\J	.	.	.	.	.	.	.	.	.
8e-\	8e-/L	8g/L	.	8E-\J	-nit	.	.	.	.	.	.	.	.
8E-\J	8e-/J	8g/J	.	4r	.	.	8r	.	.	.	.	.	.
8r	8r	8r	.	.	.	.	8ee-\	Qui	.	.	.	.	.
=53	=53	=53	=53	=53	=53	=53	=53	=53	=53	=53	=53	=53	=53
2B-\	4f/	4a-/	.	2r	.	.	8dd\	ve-	.	.	.	.	.
.	.	.	.	.	.	.	16cc\	-nit	.	.	.	.	.
.	.	.	.	.	.	.	16dd\	in	.	.	.	.	.
.	4d/	4f/	.	.	.	.	8b-\	no-	.	.	.	.	.
.	.	.	.	.	.	.	16cc\	-mi-	.	.	.	.	.
.	.	.	.	.	.	.	16dd\	-ne	.	.	.	.	.
!	!LO:LB:g=original	!	!	!	!	!	!LO:LB:g=original	!	!	!	!	!	!
=54	=54	=54	=54	=54	=54	=54	=54	=54	=54	=54	=54	=54	=54
8E-\L	8e-/L	8g/L	.	4r	.	.	16ee-\	Do-	.	.	.	.	.
.	.	.	.	.	.	.	16dd\	-mi-	.	.	.	.	.
8E-\	8g/	8b-/	.	.	.	.	8ee-\	-ni	.	.	.	.	.
8E-\J	8e-/J	8g/J	.	8r	.	.	8r	.	.	.	.	.	.
8r	8r	8r	.	8e-\	Qui	.	8gg\	qui	.	.	.	.	.
=55	=55	=55	=55	=55	=55	=55	=55	=55	=55	=55	=55	=55	=55
!	!	!	!	!	!	!	!	!	!	!LO:N:vis=00	!LO:N:vis=00	!LO:N:vis=00	!LO:N:vis=00
2B-\	4a-/	4dd\	.	8d\L	ve-	.	8ff\	ve-	.	0r	0r	0r	0r
.	.	.	.	16c\L	.	.	16ee-\	-nit	.	.	.	.	.
.	.	.	.	16d\JJ	.	.	16ff\	in	.	.	.	.	.
.	8f/L	8b-\L	.	8B-\L	.	.	8dd\	no-	.	.	.	.	.
.	8a-/J	8dd\J	.	16c\L	.	.	16ee-\	-mi-	.	.	.	.	.
.	.	.	.	16d\JJ	.	.	16ff\	-ne	.	.	.	.	.
=56	=56	=56	=56	=56	=56	=56	=56	=56	=56	=56	=56	=56	=56
8E-\L	8g/L	8ee-/L	.	16e-\LL	.	.	16gg\	Do-	.	.	.	.	.
.	.	.	.	16d\J	.	.	16ff\	-mi-	.	.	.	.	.
8E-\	8g/	8b-/	.	8e-\J	-nit	.	8gg\	-ne	.	.	.	.	.
8E-\J	8e-/J	8g/J	.	4r	.	.	16r	.	.	.	.	.	.
.	.	.	.	.	.	.	16gg\	Qui	.	.	.	.	.
8r	8r	8r	.	.	.	.	16gg\	ve-	.	.	.	.	.
!	!	!	!	!	!	!	!LO:TX:a:t=V.Cito	!	!	!	!	!	!
!	!	!	!	!	!	!	!LO:TX:a:t=al Segno	!	!	!	!	!	!
.	.	.	.	.	.	.	16gg\	-nit	.	.	.	.	.
!	!	!	!	!	!	!	!LO:TX:t=[segno]:problem:znak segno na kresce taktowej	!	!	!	!	!	!
=57	=57	=57	=57	=57	=57	=57	=57||	=57	=57	=57	=57	=57	=57
8d\L	4b-\	4dd\	.	2r	.	.	16ff\LLyy	in	.	.	.	.	.
.	.	.	.	.	.	.	32gg\Lyy	.	.	.	.	.	.
.	.	.	.	.	.	.	32aa-\JJJyy	.	.	.	.	.	.
8B-\	.	.	.	.	.	.	16bb-\yy	no-	.	.	.	.	.
.	.	.	.	.	.	.	32aa-\yy	-mi-	.	.	.	.	.
.	.	.	.	.	.	.	32gg\yy	-ne	.	.	.	.	.
8c\	8cc\L	8ee-\L	.	.	.	.	8ff\Lyy	Do-	.	.	.	.	.
8An\J	8an\J	8cc\J	.	.	.	.	32ff\LLyy	-mi-	.	.	.	.	.
.	.	.	.	.	.	.	32ee-\yy	.	.	.	.	.	.
.	.	.	.	.	.	.	32dd\yy	.	.	.	.	.	.
.	.	.	.	.	.	.	32ee-\JJJyy	.	.	.	.	.	.
=58	=58	=58	=58	=58	=58	=58	=58	=58	=58	=58	=58	=58	=58
4B-\	16b-/LL	16dd\LL	.	4r	.	.	8dd\yy	-ni	.	.	.	.	.
.	16d/	16b-\	.	.	.	.	.	.	.	.	.	.	.
.	16c/	16an\	.	.	.	.	8ryy	.	.	.	.	.	.
.	16e-/JJ	16cc\JJ	.	.	.	.	.	.	.	.	.	.	.
4A-X\	16d/LL	16b-\LL	.	16r	.	.	4ryy	.	.	.	.	.	.
.	16a-X/	16cc\	.	16c\LL	in	.	.	.	.	.	.	.	.
.	16a-/	16cc\	.	16c\	no-	.	.	.	.	.	.	.	.
.	16a-/JJ	16cc\JJ	.	16c\JJ	-mi-	.	.	.	.	.	.	.	.
!	!	!	!	!LO:LB:g=original	!	!	!	!	!	!	!	!	!
=59	=59	=59	=59	=59	=59	=59	=59	=59	=59	=59	=59	=59	=59
!	!	!	!	!	!	!	!	!	!	!LO:N:vis=00	!LO:N:vis=00	!LO:N:vis=00	!LO:N:vis=00
8G\L	4g/	4b-/	.	16B-\LL	-ne	.	2ryy	.	.	0r	0r	0r	0r
.	.	.	.	32c\L	.	.	.	.	.	.	.	.	.
.	.	.	.	32d\JJJ	.	.	.	.	.	.	.	.	.
8E-\	.	.	.	16e-\LL	Do-	.	.	.	.	.	.	.	.
.	.	.	.	32d\L	.	.	.	.	.	.	.	.	.
.	.	.	.	32c\JJJ	.	.	.	.	.	.	.	.	.
8F\	8f/L	8a-X/L	.	8B-\L	.	.	.	.	.	.	.	.	.
8B-\J	8d/J	8g/J	.	32B-\LL	-mi-	.	.	.	.	.	.	.	.
.	.	.	.	32A-\	.	.	.	.	.	.	.	.	.
.	.	.	.	32G\	.	.	.	.	.	.	.	.	.
.	.	.	.	32A-\JJJ	.	.	.	.	.	.	.	.	.
=60	=60	=60	=60	=60	=60	=60	=60	=60	=60	=60	=60	=60	=60
4E-\	8e-/	8g/	.	4G\	-ni	.	16ryy	.	.	.	.	.	.
.	.	.	.	.	.	.	16ee-\yy	in	.	.	.	.	.
!	!	!	!	!	!	!	!LO:TX:t=P:problem:t. 60-61 – łuki dopisane później	!	!	!	!	!	!
.	8r	8r	.	.	.	.	(y16dd\yy	no-	.	.	.	.	.
.	.	.	.	.	.	.	16ee-\)yy	.	[[-mi-	.	.	.	.
4r	4r	4r	.	16r	.	.	(y16ee-\yy	.	-ne	.	.	.	.
.	.	.	.	16e-\LL	in	.	16gg\)yy	.	in	.	.	.	.
.	.	.	.	16e-\	no-	.	16ff\yy	-mi-	no-	.	.	.	.
.	.	.	.	16e-\JJ	-mi-	.	16gg\yy	-ne	-mi-]]	.	.	.	.
!	!	!LO:LB:g=original	!	!	!	!	!	!	!	!	!	!	!
=61	=61	=61	=61	=61	=61	=61	=61	=61	=61	=61	=61	=61	=61
2r	2r	2r	.	16e-\LL	-ne	.	(y16gg\yy	no-	.	.	.	.	.
.	.	.	.	16c\	.	.	16ee-\yy	.	[[in	.	.	.	.
*	*	*	*	*	*ij	*	*	*	*	*	*	*	*
.	.	.	.	16c\	in	.	16dd\yy	.	no-	.	.	.	.
.	.	.	.	16c\JJ	.	.	16ee-\)yy	.	-mi-	.	.	.	.
!	!	!	!	!	!	!	!LO:TX:t=P:problem:16dd i 16cc poprawione na 8dd i 8cc, wykreślone 16cc i 16cc	!	!	!	!	!	!
.	.	.	.	16c\LL	no-	.	8dd\Lyy	-no-	-ne	.	.	.	.
.	.	.	.	16A-\	.	.	.	.	.	.	.	.	.
.	.	.	.	16A-\	-mi-	.	8cc\Jyy	-mi-	in nomi-]]	.	.	.	.
.	.	.	.	16A-\JJ	.	.	.	.	.	.	.	.	.
=62	=62	=62	=62	=62	=62	=62	=62	=62	=62	=62	=62	=62	=62
8F\L	8r	8r	.	8A-\	-ne	.	8cc\yy	-ne	.	.	.	.	.
*	*	*	*	*	*Xij	*	*	*	*	*	*	*	*
8D\	16f/LL	16a-\LL	.	8r	.	.	8ryy	.	.	.	.	.	.
.	16g/JJ	16b-\JJ	.	.	.	.	.	.	.	.	.	.	.
8B-\	8a-/L	8cc\L	.	8r	.	.	8ryy	.	.	.	.	.	.
8d\J	16g/L	16b-\L	.	8A-\	Do-	.	8cc\yy	in	.	.	.	.	.
.	16f/JJ	16a-\JJ	.	.	.	.	.	.	.	.	.	.	.
=63	=63	=63	=63	=63	=63	=63	=63	=63	=63	=63	=63	=63	=63
!	!	!	!	!	!	!	!	!	!	!LO:N:vis=00	!LO:N:vis=00	!LO:N:vis=00	!LO:N:vis=00
8e-\L	8e-/L	8g/L	.	8G\	.	.	8b-\yy	no-	.	0r	0r	0r	0r
8A-\	8c/	8f/	.	16A-\LL	.	.	16cc\LLyy	-mi-	.	.	.	.	.
.	.	.	.	32G\L	.	.	32b-\Lyy	-ne	.	.	.	.	.
.	.	.	.	32F\JJJ	.	.	32a-\JJJyy	.	.	.	.	.	.
8B-\	8B-/	8e-/	.	8E-\L	-mi-	.	8g/yy	do-	.	.	.	.	.
8B-\J	8A-/J	8d/J	.	8D\J	.	.	8f/yy	-mi-	.	.	.	.	.
=64	=64	=64	=64	=64	=64	=64	=64	=64	=64	=64	=64	=64	=64
4E-\	8G/	8e- 8G/	.	4E-\	-ni	.	16e-/yy	-ni	.	.	.	.	.
.	.	.	.	.	.	.	16ee-\yy	in	.	.	.	.	.
!	!	!	!	!	!	!	!LO:TX:t=P:problem:t. 64-65 – łuk dopisany później	!	!	!	!	!	!
.	8r	8r	.	.	.	.	(y16dd\yy	no-	.	.	.	.	.
.	.	.	.	.	.	.	16ee-\yy	.	[[-mi	.	.	.	.
4r	4r	4r	.	16r	.	.	16ee-\yy	.	-ne	.	.	.	.
.	.	.	.	16e-\LL	in	.	16gg\)yy	.	in	.	.	.	.
.	.	.	.	16e-\	no-	.	16ff\yy	-mi-	no-	.	.	.	.
.	.	.	.	16e-\JJ	-mi-	.	16gg\yy	-ne	mi-]]	.	.	.	.
!LO:LB:g=original	!	!	!	!LO:LB:g=original	!	!	!	!	!	!	!	!	!
=65	=65	=65	=65	=65	=65	=65	=65	=65	=65	=65	=65	=65	=65
2r	2r	2r	.	16e-\LL	-ne	.	(y16gg\yy	no-	.	.	.	.	.
.	.	.	.	16c\	.	.	16ee-\)yy	.	[[in	.	.	.	.
*	*	*	*	*	*ij	*	*	*	*	*	*	*	*
.	.	.	.	16c\	in	.	16dd\yy	.	no-	.	.	.	.
.	.	.	.	16c\JJ	.	.	16ee-\yy	.	-mi-	.	.	.	.
!	!	!	!	!	!	!	!LO:TX:t=P:problem:16dd i 16cc poprawione na 8dd i 8cc, wykreślone 16cc i 16cc	!	!	!	!	!	!
.	.	.	.	16c\LL	no-	.	8dd\Lyy	-no-	-ne	.	.	.	.
.	.	.	.	16A-\	.	.	.	.	.	.	.	.	.
.	.	.	.	16A-\	-mi-	.	8cc\Jyy	-mi-	in nomi-]]	.	.	.	.
.	.	.	.	16A-\JJ	.	.	.	.	.	.	.	.	.
=66	=66	=66	=66	=66	=66	=66	=66	=66	=66	=66	=66	=66	=66
8F\L	8r	8r	.	8A-\	-ne	.	8cc\yy	-ne	.	.	.	.	.
*	*	*	*	*	*Xij	*	*	*	*	*	*	*	*
8D\	16f/LL	16a-\LL	.	8r	.	.	8ryy	.	.	.	.	.	.
.	16g/JJ	16b-\JJ	.	.	.	.	.	.	.	.	.	.	.
8B-\	8a-/L	8cc\L	.	8r	.	.	8ryy	.	.	.	.	.	.
8d\J	16g/L	16b-\L	.	8A-\	Do-	.	8cc\yy	in	.	.	.	.	.
.	16f/JJ	16a-\JJ	.	.	.	.	.	.	.	.	.	.	.
!	!LO:LB:g=original	!	!	!	!	!	!	!	!	!	!	!	!
=67	=67	=67	=67	=67	=67	=67	=67	=67	=67	=67	=67	=67	=67
!	!	!	!	!	!	!	!	!	!	!LO:TX:t=P:problem:brak 0r	!LO:TX:t=P:problem:brak 0r	!LO:TX:t=P:problem:brak 0r	!LO:TX:t=P:problem:brak 0r
!	!	!	!	!	!	!	!	!	!	!LO:N:vis=00	!LO:N:vis=00	!LO:N:vis=0	!LO:N:vis=0
8e-\L	8e-/L	8g/L	.	8G\	.	.	8b-\yy	no-	.	1ryy	1ryy	1ryy	1ryy
8A-\	8c/	8f/	.	16A-\LL	.	.	16cc\LLyy	-mi-	.	.	.	.	.
.	.	.	.	32G\L	.	.	32b-\Lyy	-ne	.	.	.	.	.
.	.	.	.	32F\JJJ	.	.	32a-\JJJyy	.	.	.	.	.	.
8B-\	8B-/	8e-/	.	8E-\L	-mi-	.	8g/yy	do-	.	.	.	.	.
8B-\J	8A-/J	8d/J	.	8D\J	.	.	8f/yy	-mi-	.	.	.	.	.
=68	=68	=68	=68	=68	=68	=68	=68	=68	=68	=68	=68	=68	=68
!	!	!	!	!	!	!	!	!	!	!	!	!LO:TX:a:t=D.C.\n(podwójna fermata)	!LO:TX:a:t=Da\nCapo\n(podwójna fermata)
8E-\L	8G/L	8e-L 8G/	.	8E-\	-ni	.	8e-/yy	-ni	.	.	.	.	.
16G\L	16e-/L	16g/L	.	8r	.	.	8r;yy	.	.	.	.	.	.
16B-\JJ	16g/JJ	16b-/JJ	.	.	.	.	.	.	.	.	.	.	.
!	!	!	!	!	!	!	!LO:TX:b:t=finis	!	!	!	!	!	!
8e-\	8e-/	8ee- 8g/	.	4r	.	.	4ryy	.	.	.	.	.	.
8r	8r	8r	.	.	.	.	.	.	.	.	.	.	.
!	!LO:TX:a:rj:t=DaCapo od [podwójna fermata]	!LO:TX:a:rj:t=Da Capo ad [podwójna fermata]	!	!	!	!	!	!	!	!	!	!	!
!	!	!	!	!LO:TX:t=[segno]:problem:znak segno na kresce taktowej	!	!	!	!	!	!	!	!	!
=69	=69||	=69||	=69||	=69||	=69||	=69||	=69	=69	=69	=69||	=69||	=69||	=69||
!	!	!	!	!LO:N:vis=00	!	!	!LO:N:vis=00	!	!	!	!	!	!
4e-\	4g/yy	4b-/yy	.	0ryy	.	.	0ryy	.	.	4G/yy	4e-\yy	16g\LLyy	16b-\LLyy
.	.	.	.	.	.	.	.	.	.	.	.	16g\Jyy	16ee-\Jyy
.	.	.	.	.	.	.	.	.	.	.	.	8.b-\Jyy	8.gg\Jyy
4B-\	4f/yy	4a-/yy	.	.	.	.	.	.	.	4B-/yy	4f\yy	.	.
.	.	.	.	.	.	.	.	.	.	.	.	16g\LLyy	16ee-\LLyy
.	.	.	.	.	.	.	.	.	.	.	.	16f\yy	16dd\yy
.	.	.	.	.	.	.	.	.	.	.	.	16a-\JJyy	16ff\JJyy
=70	=70	=70	=70	=70	=70	=70	=70	=70	=70	=70	=70	=70	=70
8E-\	16ryy	16ryy	.	.	.	.	.	.	.	4e-\yy	4g\yy	16.g\LLyy	16.ee-\LLyy
.	16e-/LLyy	16g/LLyy	.	.	.	.	.	.	.	.	.	.	.
.	.	.	.	.	.	.	.	.	.	.	.	32a-\JKyy	32cc\JKyy
8r	16e-/yy	16g/yy	.	.	.	.	.	.	.	.	.	8g\Jyy	8b-\Jyy
.	16e-/JJyy	16g/JJyy	.	.	.	.	.	.	.	.	.	.	.
8E-\	16ryy	16ryy	.	.	.	.	.	.	.	4ryy	4ryy	16ryy	16ryy
.	16e-/LLyy	16g/LLyy	.	.	.	.	.	.	.	.	.	16g\LLyy	16b-\LLyy
8r	16e-/yy	16g/yy	.	.	.	.	.	.	.	.	.	16g\yy	16ee-\yy
.	16e-/JJyy	16g/JJyy	.	.	.	.	.	.	.	.	.	16g\JJyy	16b-\JJyy
=71	=71	=71	=71	=71	=71	=71	=71	=71	=71	=71	=71	=71	=71
!	!	!	!	!	!	!	!	!	!	!LO:N:vis=0	!LO:N:vis=0	!	!
8E-\	16ryy	16ryy	.	.	.	.	.	.	.	1ryy	1ryy	16g\LLyy	16bX\LLyy
.	16a-/LLyy	16cc\LLyy	.	.	.	.	.	.	.	.	.	16a-\Jyy	16cc\Jyy
8r	16a-/yy	16cc\yy	.	.	.	.	.	.	.	.	.	8.a-\Jyy	8.cc\Jyy
.	16a-/JJyy	16cc\JJyy	.	.	.	.	.	.	.	.	.	.	.
8E-\	16ryy	16ryy	.	.	.	.	.	.	.	.	.	.	.
.	16f/LLyy	16a-/LLyy	.	.	.	.	.	.	.	.	.	16cc\LLyy	16aa-\LLyy
8r	16f/yy	16a-/yy	.	.	.	.	.	.	.	.	.	16a-\yy	16ff\yy
.	16f/JJyy	16a-/JJyy	.	.	.	.	.	.	.	.	.	16f\JJyy	16dd\JJyy
=72	=72	=72	=72	=72	=72	=72	=72	=72	=72	=72	=72	=72	=72
8E-\	16ryy	16ryy	.	.	.	.	.	.	.	.	.	16.g\LLyy	16.ee-\LLyy
.	16e-/LLyy	16g/LLyy	.	.	.	.	.	.	.	.	.	.	.
.	.	.	.	.	.	.	.	.	.	.	.	32a-\Kyy	32cc\Kyy
8r	16e-/yy	16g/yy	.	.	.	.	.	.	.	.	.	16g\JJyy	16b-\JJyy
.	16e-/JJyy	16g/JJyy	.	.	.	.	.	.	.	.	.	16ryy	16ryy
8E-\	16ryy	16ryy	.	.	.	.	.	.	.	.	.	16ryy	16ryy
.	16e-/LLyy	16g/LLyy	.	.	.	.	.	.	.	.	.	16g/LLyy	16b-\LLyy
8r	16e-/yy	16g/yy	.	.	.	.	.	.	.	.	.	16g/yy	16b-\yy
.	16e-/JJyy	16g/JJyy	.	.	.	.	.	.	.	.	.	16g/JJyy	16bX\JJyy
=73	=73	=73	=73	=73	=73	=73	=73	=73	=73	=73	=73	=73	=73
!	!	!	!	!LO:N:vis=00	!	!	!LO:N:vis=00	!	!	!	!	!	!
8E-\	16ryy	16ryy	.	0ryy	.	.	0ryy	.	.	2ryy	2ryy	16g/LLyy	16b-\LLyy
.	16a-/LLyy	16cc\LLyy	.	.	.	.	.	.	.	.	.	16a-/Jyy	16cc\Jyy
8r	16a-/yy	16cc\yy	.	.	.	.	.	.	.	.	.	8.a-/Jyy	8.cc\Jyy
.	16a-/JJyy	16cc\JJyy	.	.	.	.	.	.	.	.	.	.	.
8E-\	16ryy	16ryy	.	.	.	.	.	.	.	.	.	.	.
.	16f/LLyy	16a-/LLyy	.	.	.	.	.	.	.	.	.	16cc\LLyy	16aa-\LLyy
8r	16f/yy	16a-/yy	.	.	.	.	.	.	.	.	.	16a-\yy	16ff\yy
.	16f/JJyy	16a-/JJyy	.	.	.	.	.	.	.	.	.	16f\JJyy	16dd\JJyy
=74	=74	=74	=74	=74	=74	=74	=74	=74	=74	=74	=74	=74	=74
8E-\L	8e-/Lyy	8g/Lyy	.	.	.	.	.	.	.	8G\Lyy	8e-\Lyy	8g/Lyy	8ee-\Lyy
8E-\	16g/Lyy	16b-/Lyy	.	.	.	.	.	.	.	16e-\Lyy	16g\Lyy	16b-/Lyy	16gg\Lyy
.	16f/JJyy	16a-/JJyy	.	.	.	.	.	.	.	16B-\JJyy	16f\JJyy	16a-/JJyy	16ff\JJyy
8E-\J	8e-/yy	8g/yy	.	.	.	.	.	.	.	8G/yy	8e-\yy	8g/yy	8ee-\yy
8r	8ryy	8ryy	.	.	.	.	.	.	.	8ryy	8ryy	8ryy	8ryy
!LO:LB:g=original	!	!	!	!	!	!	!	!	!	!	!	!	!
=75	=75	=75	=75	=75	=75	=75	=75	=75	=75	=75	=75	=75	=75
!	!LO:N:vis=0	!	!	!	!	!	!	!	!	!LO:N:vis=00	!LO:N:vis=00	!	!
4B-\	1ryy	16ff\LLyy	.	.	.	.	.	.	.	0ryy	0ryy	4.dd\yy	4.ff\yy
.	.	16bb-\yy	.	.	.	.	.	.	.	.	.	.	.
.	.	16ddd\yy	.	.	.	.	.	.	.	.	.	.	.
.	.	16bb-\JJyy	.	.	.	.	.	.	.	.	.	.	.
4F\	.	4aan\yy	.	.	.	.	.	.	.	.	.	.	.
.	.	.	.	.	.	.	.	.	.	.	.	24b-\LLyy	24dd\LLyy
.	.	.	.	.	.	.	.	.	.	.	.	24a\yy	24cc\yy
.	.	.	.	.	.	.	.	.	.	.	.	24cc\JJyy	24ee-\JJyy
=76	=76	=76	=76	=76	=76	=76	=76	=76	=76	=76	=76	=76	=76
4B-\	.	16ff\LLyy	.	.	.	.	.	.	.	.	.	8b-\Lyy	8dd\Lyy
.	.	16bb-\yy	.	.	.	.	.	.	.	.	.	.	.
!	!	!	!	!	!	!	!	!	!	!	!	!	!LO:N:vis=16.
.	.	16ddd\yy	.	.	.	.	.	.	.	.	.	8.dd\Jyy	8.ff\Jyy
.	.	16bb-\JJyy	.	.	.	.	.	.	.	.	.	.	.
4F\	.	4aan\yy	.	.	.	.	.	.	.	.	.	.	.
.	.	.	.	.	.	.	.	.	.	.	.	16b-\LLyy	16dd\LLyy
.	.	.	.	.	.	.	.	.	.	.	.	16a\yy	16cc\yy
.	.	.	.	.	.	.	.	.	.	.	.	16cc\JJyy	16ee-\JJyy
=77	=77	=77	=77	=77	=77	=77	=77	=77	=77	=77	=77	=77	=77
!	!	!	!	!LO:N:vis=00	!	!	!LO:N:vis=00	!	!	!	!	!	!
8B-\L	8d/Lyy	32bb-\LLLyy	.	0ryy	.	.	0ryy	.	.	.	.	8b-/Lyy	8dd\Lyy
.	.	32aan\yy	.	.	.	.	.	.	.	.	.	.	.
.	.	32bb-\yy	.	.	.	.	.	.	.	.	.	.	.
.	.	32ff\JJJyy	.	.	.	.	.	.	.	.	.	.	.
8E-\	8e-/yy	32gg\LLLyy	.	.	.	.	.	.	.	.	.	8e-/yy	8cc\yy
.	.	32dd\yy	.	.	.	.	.	.	.	.	.	.	.
.	.	32ee-\yy	.	.	.	.	.	.	.	.	.	.	.
.	.	32cc\JJJyy	.	.	.	.	.	.	.	.	.	.	.
8F\	8f/yy	8b-/Lyy	.	.	.	.	.	.	.	.	.	8d/yy	8b-\yy
!LO:SIC:v:o=8G\J	!	!LO:SIC:v:o=8a-/Jyy	!	!	!	!	!	!	!	!	!	!	!LO:SIC:v:o=8a-\Jyy
8An\J	8e-/Jyy	8an/yy	.	.	.	.	.	.	.	.	.	8c/Jyy	8an\Jyy
=78	=78	=78	=78	=78	=78	=78	=78	=78	=78	=78	=78	=78	=78
8B-\L	8d/Lyy	8b-\Lyy	.	.	.	.	.	.	.	.	.	8d/yy	8b-/yy
8B-\	16.f/Lyy	16.dd\Lyy	.	.	.	.	.	.	.	.	.	8ryy	8ryy
.	32e-/JJky	32cc\JJkyy	.	.	.	.	.	.	.	.	.	.	.
8B-\J	8d/yy	8b-/yy	.	.	.	.	.	.	.	.	.	4ryy	4ryy
8r	8ryy	8ryy	.	.	.	.	.	.	.	.	.	.	.
=79	=79	=79	=79	=79	=79	=79	=79	=79	=79	=79	=79	=79	=79
8E-\	4g/yy	4b-/yy	.	.	.	.	.	.	.	16e-\LLyy	16g\LLyy	16ee-\LLyy	16gg\LLyy
.	.	.	.	.	.	.	.	.	.	16f\yy	16a-\yy	16ff\yy	16aa-X\yy
8r	.	.	.	.	.	.	.	.	.	16g\yy	16b-\yy	16gg\yy	16bb-\yy
.	.	.	.	.	.	.	.	.	.	16a-\JJyy	16cc\JJyy	16aa-\JJyy	16ccc\JJyy
8e-\	16ee-\LLyy	16gg\LLyy	.	.	.	.	.	.	.	8g\yy	8b-\yy	8gg\yy	8bb-\yy
.	16b-\yy	16ee-\yy	.	.	.	.	.	.	.	.	.	.	.
8r	16g\yy	16b-\yy	.	.	.	.	.	.	.	8ryy	8ryy	8ryy	8ryy
.	16e-\JJyy	16g\JJyy	.	.	.	.	.	.	.	.	.	.	.
=80	=80	=80	=80	=80	=80	=80	=80	=80	=80	=80	=80	=80	=80
8B-\	4f/yy	4a-/yy	.	.	.	.	.	.	.	16B-\LLyy	16f\LLyy	16dd\LLyy	16ff\LLyy
.	.	.	.	.	.	.	.	.	.	16e-\yy	16g\yy	16ee-\yy	16gg\yy
8r	.	.	.	.	.	.	.	.	.	16f\yy	16a-\yy	16ff\yy	16aa-\yy
.	.	.	.	.	.	.	.	.	.	16g\JJyy	16b-\JJyy	16gg\JJyy	16bb-\JJyy
8B-\	16dd\LLyy	16ff\LLyy	.	.	.	.	.	.	.	8f\yy	8a-\yy	8ff\yy	8aa-\yy
.	16b-\yy	16dd\yy	.	.	.	.	.	.	.	.	.	.	.
8r	16g\yy	16b-\yy	.	.	.	.	.	.	.	8ryy	8ryy	8ryy	8ryy
.	16f\JJyy	16a-\JJyy	.	.	.	.	.	.	.	.	.	.	.
=81	=81	=81	=81	=81	=81	=81	=81	=81	=81	=81	=81	=81	=81
!	!	!	!	!LO:N:vis=00	!	!	!LO:N:vis=00	!	!	!	!	!	!
8e-\L	16ryy	16ryy	.	0ryy	.	.	0ryy	.	.	8e-\Lyy	8g\Lyy	8ee-\Lyy	8gg\Lyy
.	16g\LLyy	16g/LLyy	.	.	.	.	.	.	.	.	.	.	.
8e-\	16g\yy	16cc/yy	.	.	.	.	.	.	.	8e-\yy	8g\yy	8ee-\yy	8gg\yy
.	16g\JJyy	16cc/JJyy	.	.	.	.	.	.	.	.	.	.	.
8c\	16ryy	16ryy	.	.	.	.	.	.	.	8f\yy	8f\yy	8ee-\yy	8aa\yy
.	16f/LLyy	16ee-\LLyy	.	.	.	.	.	.	.	.	.	.	.
8An\J	16f/yy	16ee-\yy	.	.	.	.	.	.	.	8f\Jyy	8f\Jyy	8ee-\Jyy	8aa\Jyy
.	16f/JJyy	16ee-\JJyy	.	.	.	.	.	.	.	.	.	.	.
=82	=82	=82	=82	=82	=82	=82	=82	=82	=82	=82	=82	=82	=82
!	!LO:TX:a:t=P:problem:mixed beam	!	!	!	!	!	!	!	!	!	!	!	!
8B-\L	32b-\LLLyy	32dd/LLLyy	.	.	.	.	.	.	.	8B-/yy	8f\yy	8dd\yy	8bb-\yy
.	32B-/yy	32B-/yy	.	.	.	.	.	.	.	.	.	.	.
.	32c/yy	32c/yy	.	.	.	.	.	.	.	.	.	.	.
.	32d/JJJyy	32d/JJJyy	.	.	.	.	.	.	.	.	.	.	.
!	!	!	!	!	!	!	!	!	!	!	!	!LO:N:vis=4	!
8B-\	32e-/LLLyy	32e-/LLLyy	.	.	.	.	.	.	.	8ryy	8ryy	8ryy	8ryy
.	32f/yy	32f/yy	.	.	.	.	.	.	.	.	.	.	.
.	32g/yy	32g/yy	.	.	.	.	.	.	.	.	.	.	.
.	32an/JJJyy	32an/JJJyy	.	.	.	.	.	.	.	.	.	.	.
!	!	!	!	!	!	!	!	!	!	!	!	!LO:N:vis=8	!
8B-\J	8b-yy 8d/yy	8b-yy 8d/yy	.	.	.	.	.	.	.	4ryy	4ryy	4ryy	4ryy
8r	8ryy	8ryy	.	.	.	.	.	.	.	.	.	.	.
=83	=83	=83	=83	=83	=83	=83	=83	=83	=83	=83	=83	=83	=83
4e-\	16ryy	16ryy	.	.	.	.	.	.	.	8G/yy	8e-\yy	16g\LLyy	16b-/LLyy
.	16b-/LLyy	16g/LLyy	.	.	.	.	.	.	.	.	.	16g\Jyy	16ee-/JJyy
.	16b-/yy	16g/yy	.	.	.	.	.	.	.	4e-\yy	4g\yy	8.b-\Jyy	8.gg\yy
.	16b-/JJyy	16g/JJyy	.	.	.	.	.	.	.	.	.	.	.
4B-\	16ryy	16ryy	.	.	.	.	.	.	.	.	.	.	.
.	16a-/LLyy	16f/LLyy	.	.	.	.	.	.	.	.	.	16cc\LLyy	16aa-\LLyy
.	16a-/yy	16f/yy	.	.	.	.	.	.	.	8B-/yy	8f\yy	16a-\yy	16ff\yy
.	16a-/JJyy	16f/JJyy	.	.	.	.	.	.	.	.	.	16f\JJyy	16dd\JJyy
=84	=84	=84	=84	=84	=84	=84	=84	=84	=84	=84	=84	=84	=84
4E-\	16ryy	16ryy	.	.	.	.	.	.	.	8e-\yy	8g\yy	16g\LLyy	16ee-\LLyy
.	16g/LLyy	16e-/LLyy	.	.	.	.	.	.	.	.	.	16ee-\Jyy	16gg\Jyy
.	16g/yy	16e-/yy	.	.	.	.	.	.	.	4g\yy	4b-\yy	8.gg\Jyy	8.bb-\Jyy
.	16g/JJyy	16e-/JJyy	.	.	.	.	.	.	.	.	.	.	.
4B-\	16ryy	16ryy	.	.	.	.	.	.	.	.	.	.	.
.	16f/LLyy	16d/LLyy	.	.	.	.	.	.	.	.	.	16aa-\LLyy	16ccc\LLyy
.	16f/yy	16d/yy	.	.	.	.	.	.	.	8f\yy	8a-\yy	16ff\yy	16aa-\yy
.	16f/JJyy	16d/JJyy	.	.	.	.	.	.	.	.	.	16dd\JJyy	16ff\JJyy
!LO:LB:g=original	!	!	!	!	!	!	!	!	!	!	!	!	!
=85	=85	=85	=85	=85	=85	=85	=85	=85	=85	=85	=85	=85	=85
!	!	!	!	!LO:N:vis=00	!	!	!LO:N:vis=00	!	!	!	!	!	!
8G\L	8g/Lyy	8e-/Lyy	.	0ryy	.	.	0ryy	.	.	8e-\Lyy	8g\Lyy	16ee-\LLyy	16gg\LLyy
.	.	.	.	.	.	.	.	.	.	.	.	16g\yy	16b-\yy
8A-\	8a-/yy	8f/yy	.	.	.	.	.	.	.	8f\yy	8a-\yy	16a-\yy	16cc\yy
.	.	.	.	.	.	.	.	.	.	.	.	16a-\JJyy	16ff\JJyy
!LO:SIC:v:o=8c\	!	!	!	!	!	!	!	!	!	!	!	!	!
8B-\	8b-/yy	8g/yy	.	.	.	.	.	.	.	8e-\yy	8g\yy	8g\Lyy	8ee-\Lyy
!LO:SIC:v:o=8c\J	!	!	!	!	!	!	!	!	!	!	!	!	!
8B-\	8a-/Jyy	8f/Jyy	.	.	.	.	.	.	.	8B-\Jyy	8f\Jyy	8f\Jyy	8dd\Jyy
=86	=86	=86	=86	=86	=86	=86	=86	=86	=86	=86	=86	=86	=86
4e-\	16ryy	16ryy	.	.	.	.	.	.	.	8e-\yy	8g\yy	16g\LLyy	16ee-\LLyy
.	16g/LLyy	16e-/LLyy	.	.	.	.	.	.	.	.	.	16ee-\Jyy	16gg\Jyy
.	16g/yy	16e-/yy	.	.	.	.	.	.	.	4g\yy	4b-\yy	8.gg\Jyy	8.bb-\Jyy
.	16g/JJyy	16e-/JJyy	.	.	.	.	.	.	.	.	.	.	.
4B-\	16ryy	16ryy	.	.	.	.	.	.	.	.	.	.	.
.	16f/LLyy	16d/LLyy	.	.	.	.	.	.	.	.	.	16aa-\LLyy	16ccc\LLyy
.	16f/yy	16d/yy	.	.	.	.	.	.	.	8f\yy	8a-\yy	16ff\yy	16aa-\yy
.	16f/JJyy	16d/JJyy	.	.	.	.	.	.	.	.	.	16dd\JJyy	16ff\JJyy
=87	=87	=87	=87	=87	=87	=87	=87	=87	=87	=87	=87	=87	=87
!	!	!	!	!	!	!	!	!	!	!	!	!LO:TX:a:t=P:problem:mixed beam	!
8G\L	8g/Lyy	8e-/Lyy	.	.	.	.	.	.	.	8e-\Lyy	8g\Lyy	16ee-\LLyy	16gg\LLyy
.	.	.	.	.	.	.	.	.	.	.	.	16g/yy	16b-\yy
8A-\	8a-/yy	8f/yy	.	.	.	.	.	.	.	8f\yy	8a-\yy	16a-/yy	16cc\yy
.	.	.	.	.	.	.	.	.	.	.	.	16a-/JJyy	16ff\JJyy
8B-\	8b-/yy	8g/yy	.	.	.	.	.	.	.	8e-\yy	8g\yy	8g/Lyy	8ee-\Lyy
8B-\J	8a-/Jyy	8f/Jyy	.	.	.	.	.	.	.	8B-\Jyy	8f\Jyy	8f/Jyy	8dd\Jyy
=88	=88	=88	=88	=88	=88	=88	=88	=88	=88	=88	=88	=88	=88
!	!	!	!	!	!	!	!	!	!	!	!	!LO:TX:a:t=P:problem:mixed beam	!
8e-\L	8g/Lyy	8e-/Lyy	.	.	.	.	.	.	.	8G/Lyy	8e-\Lyy	8g/Lyy	8ee-\Lyy
8B-\	16g/Lyy	16B-/Lyy	.	.	.	.	.	.	.	16e-/Lyy	16g\Lyy	16gg\Lyy	16bb-\Lyy
.	16f/JJyy	16A-/JJyy	.	.	.	.	.	.	.	16B-/JJyy	16f\JJyy	16ff\JJyy	16aa-\JJyy
8E-\J	4e-;/yy	4G;/yy	.	.	.	.	.	.	.	8G/yy	8e-\yy	8ee-\yy	8gg\yy
!	!	!	!	!	!	!	!	!	!	!	!	!	!LO:TX:t=P:problem:podwójna fermata
8r	.	.	.	.	.	.	.	.	.	8r;yy	8r;yy	8ryy	8r;yy
==	==	==	==	==	==	==	==	==	==	==	==	==	==
*-	*-	*-	*-	*-	*-	*-	*-	*-	*-	*-	*-	*-	*-
!!!system-decoration: [(g1)][(g2)][(g3)][(g4)]g5
!!!RDF**kern: i = editorial accidental
!!!ENC: Katarzyna Serwa
!!!END: 2021-12-08
!!!ENC: Berenika Jozajtis
!!!END: 2021-11-21
